X: 1
T: High Road to Linton
R: reel
S: BSFC Session Tune Book 2016 p.22
B: Skye p.22, Hunter 234, Williamson p.51, Chambers R5, BSFC I-24 and III-5 and VI-21
D: Fiddlers Live CD 7 following The Ale is Dear
N: Sometimes only the first two parts are played.
N: Parts 3 and 4 may have been written by Bobby MacLeod.
Z: John Chambers <jc:trillian.mit.edu>
M: C|
L: 1/8
K: AMix=g
e2 \
|: "A"{d}ceef "A7"a2ae | "D"f2fe "A"a2ae | "A"ceef "D"a2ae | "Bm"faec "E7"B2"A"A2 :|
|: "A"ceeg "D"fddf | "A"ecce "E7"fBBd | "A"ceeg "D"fddf | "Bm"ecac "E7"B2"A"A2 :|
|: "A"a2a2 efa2 | "A"efae faef | "A"a2a2 efae | "Bm"faec "E7"B2"A"A2 :|
|: "A"c2ec "D"defd | "..."c2ec "E7"BcdB | "A7"cdec "D"def"(#)"g | "Bm"afec "E7"B2"A"A2 :|
